Hatter-kde/emblems/24/emblem-information.svg

<svg xmlns="http://www.w3.org/2000/svg" viewBox="0 0 24 24">
 <path 
     style="opacity:1;fill:#5f8dd3;fill-opacity:1"
     d="M 12.392578,1.0078121 A 10.999999,11 0 0 0 11.292969,1.0234371 10.999999,11 0 0 0 1.0234376,12.707031 10.999999,11 0 0 0 12.707031,22.976562 10.999999,11 0 0 0 22.976562,11.292969 10.999999,11 0 0 0 12.392578,1.0078121 Z"
     />
 <path 
     style="opacity:1;fill:#ffffff;fill-opacity:1"
     d="m 12,5.9999996 c -0.554,0 -1,0.446 -1,1 0,0.554 0.446,1 1,1 0.554,0 1,-0.446 1,-1 0,-0.554 -0.446,-1 -1,-1 z m -0.0039,4 C 11.443828,9.9999996 11,10.44371 11,10.996094 l 0,7.007812 C 11,18.556106 11.443828,19 11.996094,19 l 0.0078,0 C 12.556172,19 13,18.556106 13,18.003906 l 0,-7.007812 C 13,10.44371 12.556172,9.9999996 12.003906,9.9999996 l -0.0078,0 z"
     />
</svg>

<?xml version="1.0" encoding="UTF-8"?>
<svg viewBox="0 0 24 24" xmlns="http://www.w3.org/2000/svg">
 <path d="m12.393 1.0078a11 11 0 0 0-1.0996 0.015625 11 11 0 0 0-10.27 11.684 11 11 0 0 0 11.684 10.27 11 11 0 0 0 10.27-11.684 11 11 0 0 0-10.584-10.285z" fill="#5f8dd3"/>
 <path d="m12 6c-0.554 0-1 0.446-1 1s0.446 1 1 1 1-0.446 1-1-0.446-1-1-1zm-0.0039 4c-0.55227 0-0.9961 0.44371-0.9961 0.99609v7.0078c0 0.5522 0.44383 0.99609 0.99609 0.99609h0.0078c0.55228 0 0.99611-0.44389 0.99611-0.99609v-7.0078c0-0.55238-0.44383-0.99609-0.99609-0.99609h-0.0078z" fill="#fff"/>
</svg>
